X:1
T:Title
%%score { ( 1 3 ) | ( 2 4 ) }
L:1/8
M:4/4
K:C
V:1 treble nm="Grand Piano"
V:3 treble 
V:2 bass 
V:4 bass 
V:1
 z4 z2[Q:1/4=94] [CE][DF] | [EG][EG][EG][EG] [EG][EG][EG][EG] | [FA][Ac][GB][FA] [EG]2 [CE][CE] | %3
 [EG][DF][B,D][DF] [CE][EG][EG]E | D2 [CE][DF] E2 GG | c6 z2 |[M:7/8] c-c-c- c- c3 |] %7
V:2
 z4 z2 [C,G,][C,G,] | [C,C][C,C][C,C][C,C] [C,C][C,C][C,C][C,C] | %2
 [F,C][F,C][F,C][F,C] [C,C]2 [C,G,][C,G,] | [G,,G,][G,,G,][G,,G,][G,,G,] [C,G,][C,C][C,C][E,G,C] | %4
 [G,B,]2 [G,,G,][G,,G,] [C,G,C]2 z2 | z2 [C,G,][E,G,] G,2 [G,,G,][G,,G,] |[M:7/8] G,2 z z z z2 |] %7
V:3
 x8 | x8 | x8 | x8 | x8 | z2 EE E2 [Fd][DB] |[M:7/8] E2 F F E3 |] %7
V:4
 x8 | x8 | x8 | x8 | x8 | x8 |[M:7/8] C,2- [C,-A,] [C,-A,] [C,G,]3 |] %7

